X:1
T:Do you Think I Do Not Know?
M:3/4
L:1/4
K:F
F/2-G/2| A2 A/2A/2| A/2 G3/2 F| F/2 A3/2 A| A2 A/2c/2| c c c| B2 A|\
 G3| z2 G| G2 G/2G/2| G/2 F3/2 E| G2 G| G2 G/2G/2| G2 G/2G/2| F2 G|\
 A3| z2 c| c c c| c/2 B3/2 A| A/2 c3/2c/2-B/2| A2 c/2c/2| c2 c| c B A|\
 B3| z B c| d2 d|d/2-c/2 B B/2c/2| c2 c| A2 A/2A/2| G3| C D E| F3|\
 z2||
